svg/washing_machine_alert.svg

<svg xmlns="http://www.w3.org/2000/svg" viewBox="0 0 24 24"><path d="M12.83 11.17c1.56 1.56 1.56 4.1 0 5.66s-4.1 1.56-5.66 0zM4 2h12a2 2 0 0 1 2 2v16c0 1.11-.89 2-2 2H4a2 2 0 0 1-2-2V4c0-1.1.9-2 2-2m1 2c-.55 0-1 .45-1 1s.45 1 1 1 1-.45 1-1-.45-1-1-1m3 0c-.55 0-1 .45-1 1s.45 1 1 1 1-.45 1-1-.45-1-1-1m2 4c-3.31 0-6 2.69-6 6s2.69 6 6 6 6-2.69 6-6-2.69-6-6-6m10 7h2v2h-2zm0-8h2v6h-2z"/></svg>

<?xml version="1.0" encoding="UTF-8"?><!DOCTYPE svg PUBLIC "-//W3C//DTD SVG 1.1//EN" "http://www.w3.org/Graphics/SVG/1.1/DTD/svg11.dtd"><svg xmlns="http://www.w3.org/2000/svg" xmlns:xlink="http://www.w3.org/1999/xlink" version="1.1" id="mdi-washing-machine-alert" width="24" height="24" viewBox="0 0 24 24"><path d="M12.83 11.17C14.39 12.73 14.39 15.27 12.83 16.83S8.73 18.39 7.17 16.83L12.83 11.17M4 2H16C17.11 2 18 2.9 18 4V20C18 21.11 17.11 22 16 22H4C2.9 22 2 21.11 2 20V4C2 2.9 2.9 2 4 2M5 4C4.45 4 4 4.45 4 5S4.45 6 5 6 6 5.55 6 5 5.55 4 5 4M8 4C7.45 4 7 4.45 7 5S7.45 6 8 6 9 5.55 9 5 8.55 4 8 4M10 8C6.69 8 4 10.69 4 14S6.69 20 10 20 16 17.31 16 14 13.31 8 10 8M20 15H22V17H20V15M20 7H22V13H20V7Z" /></svg>
